X:1
T:Two and Sixpenny Girl The -- Jig
R:jig
B:Ryan's Mammoth Collection
Z:Contributed by Ray Davies, ray:davies99.freeserve.co.uk
M:6/8
L:1/8
K:G
uD|G(BB) TB2d|cAA A2c|BGG GFG|ABG "_4"AFD|\
G(BB) TB2d|cAA A2c|BGB cAF|G(GG) G2::
uc|Bdd (d2.B)|gfe dcB|Bcd dcB|ABG "_4"AFD|\
Bdd (d2.B)|gfe dcB|Bcd DEF|G(GG) G2:|
